img/icon5.svg

<svg width="77" height="22" viewBox="0 0 77 22" fill="none" xmlns="http://www.w3.org/2000/svg">
<path d="M10.5 2.47813L12.7512 6.4459L13.6209 5.95243L12.7512 6.4459C13.036 6.94803 13.524 7.30255 14.0896 7.41833L18.5588 8.3332L15.4809 11.7003C15.0914 12.1264 14.905 12.7 14.9696 13.2737L15.4806 17.8069L11.3272 15.9201C10.8016 15.6813 10.1984 15.6813 9.6728 15.9201L5.51938 17.8069L6.03036 13.2737C6.09503 12.7 5.90864 12.1264 5.51912 11.7003L2.4412 8.3332L6.91041 7.41833C7.476 7.30255 7.96396 6.94803 8.24885 6.4459L10.5 2.47813Z" stroke="url(#paint0_linear)" stroke-width="2"/>
<path d="M38.5 2.47813L40.7512 6.4459L41.6209 5.95243L40.7512 6.4459C41.036 6.94803 41.524 7.30255 42.0896 7.41833L46.5588 8.3332L43.4809 11.7003C43.0914 12.1264 42.905 12.7 42.9696 13.2737L43.4806 17.8069L39.3272 15.9201C38.8016 15.6813 38.1984 15.6813 37.6728 15.9201L33.5194 17.8069L34.0304 13.2737C34.095 12.7 33.9086 12.1264 33.5191 11.7003L30.4412 8.3332L34.9104 7.41833C35.476 7.30255 35.964 6.94803 36.2488 6.4459L38.5 2.47813Z" stroke="url(#paint1_linear)" stroke-width="2"/>
<path d="M66.5 2.47813L68.7512 6.4459L69.6209 5.95243L68.7512 6.4459C69.036 6.94803 69.524 7.30255 70.0896 7.41833L74.5588 8.3332L71.4809 11.7003C71.0914 12.1264 70.905 12.7 70.9696 13.2737L71.4806 17.8069L67.3272 15.9201C66.8016 15.6813 66.1984 15.6813 65.6728 15.9201L61.5194 17.8069L62.0304 13.2737C62.095 12.7 61.9086 12.1264 61.5191 11.7003L58.4412 8.3332L62.9104 7.41833C63.476 7.30255 63.964 6.94803 64.2488 6.4459L66.5 2.47813Z" stroke="url(#paint2_linear)" stroke-width="2"/>
<defs>
<linearGradient id="paint0_linear" x1="-0.875" y1="10.7795" x2="21.9423" y2="10.7795" gradientUnits="userSpaceOnUse">
<stop stop-color="#5B40D7"/>
<stop offset="1" stop-color="#E85F62"/>
</linearGradient>
<linearGradient id="paint1_linear" x1="27.125" y1="10.7795" x2="49.9423" y2="10.7795" gradientUnits="userSpaceOnUse">
<stop stop-color="#5B40D7"/>
<stop offset="1" stop-color="#E85F62"/>
</linearGradient>
<linearGradient id="paint2_linear" x1="55.125" y1="10.7795" x2="77.9423" y2="10.7795" gradientUnits="userSpaceOnUse">
<stop stop-color="#5B40D7"/>
<stop offset="1" stop-color="#E85F62"/>
</linearGradient>
</defs>
</svg>

<svg width="77" height="22" fill="none" xmlns="http://www.w3.org/2000/svg"><path d="M10.5 2.478l2.251 3.968.87-.494-.87.494a2 2 0 001.339.972l4.469.915L15.48 11.7a2 2 0 00-.511 1.574l.51 4.533-4.153-1.887a2 2 0 00-1.654 0l-4.154 1.887.511-4.533a2 2 0 00-.51-1.574L2.44 8.333l4.47-.915a2 2 0 001.338-.972L10.5 2.478z" stroke="url(#paint0_linear)" stroke-width="2"/><path d="M38.5 2.478l2.251 3.968.87-.494-.87.494a2 2 0 001.339.972l4.469.915L43.48 11.7a2 2 0 00-.511 1.574l.51 4.533-4.153-1.887a2 2 0 00-1.654 0l-4.154 1.887.511-4.533a2 2 0 00-.51-1.574L30.44 8.333l4.47-.915a2 2 0 001.338-.972L38.5 2.478z" stroke="url(#paint1_linear)" stroke-width="2"/><path d="M66.5 2.478l2.251 3.968.87-.494-.87.494a2 2 0 001.339.972l4.469.915L71.48 11.7a2 2 0 00-.511 1.574l.51 4.533-4.153-1.887a2 2 0 00-1.654 0l-4.154 1.887.511-4.533a2 2 0 00-.51-1.574L58.44 8.333l4.47-.915a2 2 0 001.338-.972L66.5 2.478z" stroke="url(#paint2_linear)" stroke-width="2"/><defs><linearGradient id="paint0_linear" x1="-.875" y1="10.78" x2="21.942" y2="10.78" gradientUnits="userSpaceOnUse"><stop stop-color="#5B40D7"/><stop offset="1" stop-color="#E85F62"/></linearGradient><linearGradient id="paint1_linear" x1="27.125" y1="10.78" x2="49.942" y2="10.78" gradientUnits="userSpaceOnUse"><stop stop-color="#5B40D7"/><stop offset="1" stop-color="#E85F62"/></linearGradient><linearGradient id="paint2_linear" x1="55.125" y1="10.78" x2="77.942" y2="10.78" gradientUnits="userSpaceOnUse"><stop stop-color="#5B40D7"/><stop offset="1" stop-color="#E85F62"/></linearGradient></defs></svg>
